X:1
T:Violin Sonata A-major, HWV 372
T:George Frideric Handel (1685 — 1759) Arr. by : Leopold Auer (1845-1930), violin Carl Friedberg (1872–1955), piano
T:Violin Sonata A-major, HWV 372
T:Transcribed for Recorder and B/C in C-Dur from IMSLP#98076 PDF File
T:Public Domain
T:Public Domain
T:Public Domain
T:Public Domain
T:Public Domain
C:George Frideric Handel (1685 — 1759)
Z:Public Domain
%%score [ 1 2 ] { ( 3 4 6 8 ) | ( 5 7 ) }
L:1/8
Q:1/4=60
M:4/4
K:C
V:1 treble nm="Alto Recorder" snm="A. Rec."
V:2 bass nm="Viola da gamba" snm="Vla. d. g."
V:3 treble nm="Harpsichord" snm="Hch."
V:4 treble 
V:6 treble 
V:8 treble 
V:5 bass 
V:7 bass 
V:1
"^1. Adagio" (Te3/2(3d/4e/4f/4) (dc/B/) (c/B/c) z/ (c/e/c/) | (d/c/d){de} (fe) (dG) z (g/>G/) | %2
 (AF) (f/a/4g/4f/4e/4d/4c/4) (BG) z (g/>B/) | (c/f/)!tenuto!e/!tenuto!d/ (Td>c) c2 z (e/>f/) | %4
 (ga/b/) c'd'/>c'/ bg- g/c'/!tenuto!a/!tenuto!g/ | (^f/4e/4d/) (b/4a/4g/) (f>g) g2 z2 | %6
 z (g/>(=f/) (e/4f/4g/) (c/4d/4e/)) f(f/>e/) ((d/4e/4f/) (B/4c/4d/)) | %7
 ^G(b/>a/) (^g/4a/4b/) ((e/4^f/4g/)) (a/>e'/)c'/>b/ (Tb>a) | %8
 (a/>^c'/)(c'/>d'/) (e'/>=c'/)(c'/>b/) b/->.b/(b/>c'/) (c'/>_b/)(b/>a/) | %9
 (a/g/)(g/f/) (f/e/)(e/d/) d(g/>(f/) (e/4f/4g/) (_b/4a/4g/)) | (a3 d'/c'/) =bg z (c'/>b/) | %11
 (a/b/)!tenuto!c'/!tenuto!a/ (Tb>c') c'2 z (g/>d/) | (e/B/)!tenuto!c/!tenuto!A/ (TB>c) c4 |] %13
[M:4/4]"^2. Allegro"[Q:1/4=90] gc a(.g/.f/) gc z/ .g/.c'/.g/ | a>g f/e/d/c/ dG z (g/>e/) | %15
 (c/a/)(c/a/) (d/b/)(d/b/) (e/c'/)(e/c'/) (g/d'/)(g/d'/) | %16
 (g/e'/)(g/d'/) (g/e'/)(g/f'/) .e'.d' z/ e'/e'/e'/ | %17
 f'/(a/g/f/) g/f'/e'/d'/ e'/(g/f/e/) f/c'/e'/c'/ | (b/g/)c'/e/ (Td>c) c2 z2 | %19
 d'g e'(.d'/.c'/) .d'.g z/ d'/e'/d'/ | c'/(g/a/g/) ^f/e'/d'/c'/ .b.g z/ b/c'/b/ | %21
 (a/d/)b/^f/ g/b/a/g/ .f.d z/ .g/.g/.g/ | .g/.g/.g/.g/ .a/.a/.a/.a/ .a/.a/.a/.a/ .b/.b/.b/.b/ | %23
 !tenuto!b/!tenuto!b/!tenuto!b/!tenuto!b/ !tenuto!c'/!tenuto!c'/!tenuto!c'/!tenuto!c'/ c'2- c'/c'/b/a/ | %24
 (b/a/)g/a/ (.d.^f) g2 z (!tenuto!A | !tenuto!_B!tenuto!=B!tenuto!c!tenuto!^c) d3 [cc'] | %26
 ([Bb]/[Aa]/).[Gg]/.[Aa]/ (.[Dd].[^F^f]) [Gg]4 :: dG e(.d/.c/) .d.G z2 | %28
 gc a(.g/.f/) .g.c z/ g/c'/b/ | (ab/c'/) (Tb>a) (^g/e'/)(.e'/.d'/) (^c'/a/)(.a/.=g/) | %30
 (^f/d'/)(.d'/.=c'/) (b/g/)(.g/.=f/) (e/c'/)(.c'/.b/) (a/f/)(.f/.e/) | %31
 (d/b/)(.b/.a/) (^g/e/)(.e/.d/) (c/A/d/B/ e/c/f/A/) | (^G/d/)c/B/ (TB>A) A2 z (.B | %33
 !tenuto!c!tenuto!^c!tenuto!d!tenuto!^d) (e2- e/g/)^f/e/ | (^d/B/)e/^f/ (f>e) e2 z/ .g/.e/.=d/ | %35
 (^c/A/)!tenuto!e/!tenuto!c/ !tenuto!g/!tenuto!e/!tenuto!a/!tenuto!e/ (^f/e/)f z/ e/d/=c/ | %36
 (=B/G/)!tenuto!d/!tenuto!B/ !tenuto!=f/!tenuto!d/!tenuto!g/!tenuto!f/ (e/d/)c z (g/>e/) | %37
 (=c/a/)(c/a/) (d/b/)(d/b/) (e/c'/)(e/c'/) (g/d'/)(g/d'/) | %38
 (g/e'/)(g/d'/) (g/e'/)(g/f'/) .e'.d' z/ f'/e'/d'/ | (e'/g/)c'/a/ (b>c') c'2 z (!tenuto!c | %40
 !tenuto!B!tenuto!_B!tenuto!A!tenuto!_A) G2 z/ .f/.e/.d/ | %41
 ([cc']/[Ee]/).[Dd]/[Cc]/ .[Dd].[Bb] .[cc'].[Cc] z2 :| z/8 |[M:3/2]"^3. Largo"[Q:1/2=60] a8 a4 | %44
 (b2 a2) (^g2 ^f2) (e2 d2) | (c2 B2) (A6 B2) | (^G2 B2 e2) (^f2 =g2 a2) | (b8 a4) | %48
 (Ta4{/^g} a2 b2) (=g2 ^f2) | (g2 a2) (T^f6 e2) | e4 (g4 c4) | =f4 (f6 d2) | e4 c4 A4 | %53
 !tenuto!d2 !tenuto!f2 (e4 b4) | (c'2 ^g2) (a6 b2) | (^g2 ^f2) (e2 d2) (c2 B2) | %56
 !tenuto!c2 !tenuto!d2 (TB6 A2) | A8 B4 | !tenuto!c2 !tenuto!e2 (Td4{/c} d2 e2) | e12 |] z/8 | %61
[M:3/8]"^4. Allegro"[Q:3/8=60] .g(.a.g) | .a.g z | .ga/g/f/e/ | d/c/d z/ g/ | %65
 (g/4f/4e/) (e/4d/4c/) (c/>a/) | (a/4g/4f/) (f/4e/4d/) (d/>b/) | (b/4a/4g/) (g/4f/4e/) (e/4d/4c/) | %68
 c'c z | (.a/g/f/).e/.d/.c/ | B>(fe/B/) | (c/A/) (B>c-) | c>(ed/c/) | (d/G/B/)(.d/.g/.f/) | %74
 (e/d/c/)(.b/.a/g/) | (a/d/^f/)(.a/d'/c'/) | (b/a/g/)(d'/c'/d'/) | (e'/d'/c'/)(b/.a/.g/) | %78
 ^f>d'.a/(d'/ | .b/).d'/.a/.d'/.g/.d'/ | .^f/.d'/.e/.d'/.d/.d'/ | %81
 !tenuto!e/!tenuto!d'/!tenuto!d/!tenuto!d'/!tenuto!c/!tenuto!d'/ | %82
 !tenuto!B/!tenuto!d'/!tenuto!A/!tenuto!d'/!tenuto!G/!tenuto!d'/ | .^F/(c'/b/).a/(g/d/) | %84
 (e/a/) (T^f>g) | g>dg/^f/ | e/d/c/B/A/G/ | c>ed/c/ | (B/c/) (TA>G) | G3 :: .d(.e.d) | .e.d z | %92
 .g^f/e/d/c/ | (B/A/)G z | .g(.a.g) | .a.g z | c'b/a/g/f/ | (e/d/)c z | z/ e/c/e/a/e/ | %99
 (3(f/a/g/ (3a/g/f/) (3(f/e/d/) | .d/.f/.d/.e/.f/.d/ | (3e/g/f/ (3g/f/e/ (3e/d/c/ | %102
 c(e/^f/^g/a/4b/4) | .c'/4(e/4d/4e/4) .c'/4(e/4d/4e/4) .c'/4(e/4d/4e/4) | %104
 .b/4(e/4d/4e/4) .b/4(e/4d/4e/4) .b/4(e/4d/4e/4) | %105
 .a/4(e/4d/4e/4) .a/4(e/4d/4e/4) .a/4(e/4d/4e/4) | d'>!>!bc'/^g/ | (a/b/) (Tb>a) | a(.b^c') | %109
 d'/>d/ (=c'/4b/4c'/4d'/4) (c'/4b/4c'/4d'/4) | (b/>g/) ab | %111
 (c'/>c/) (_b/4a/4b/4c'/4) (b/4a/4b/4c'/4) | (a/g/)f/e/d/c/ | (B/A/G/)(.d/.e/.^f/) | %114
 (g/4.^f/4g/4G/4) (!>!g/4f/4g/4G/4) (g/4f/4g/4G/4) | (f/4e/4f/4G/4) (f/4e/4f/4G/4) (f/4e/4f/4G/4) | %116
 (_e/4d/4e/4G/4 (e/4)d/4e/4G/4 (e/4)d/4e/4G/4) | (d/G/)a/b/c'/g/ | (a/d'/){/c'} (Tb>c') | %119
 c'>.g.f/.g/ | .e/.g/.d/.g/.c/.g/ | .B/.g/.A/.g/.G/.g/ | A/g/G/g/F/g/ | [Ee]/g/[Dd]/g/[Cc]/g/ | %124
 .[B,B]/f/e/d/c/G/ | (A/f/){/e} (Td>c) | ([cc']/[Bb]/4[Aa]/4[Gg]/).[Ff]/.[Ee]/.[Dd]/ | %127
 .[Ee]/.[cc']/ .[Dd].[Bb] | .[cc'].[Cc] z :| %129
V:2
 C2 G,2 A,2 E,2 | F,E,D,C, G,,(G,/F,/ E,>C,) | F,2 D,F, G,(G,/>B,,/ C,)G, | A,F,G,G,, C,2 z C, | %4
 B,,(G,A,^F,) (G,A,B,C) | DG,D,D, G,(D/>C/ B,/4C/4D/)G,/4B,/4B,/ | C2 z (C D2) z D, | %7
 E,2 z D CDEE, | A,2 z ^F, G,2 z C, | =F,E,D,C, G,2 z2 | %10
 z (F,/>E,/) D,/4E,/4F,/ (B,,/4C,/4D,/) G,F,E,C, | F,E,/F,/ G,G,, C,D,E,B,, | C,F,G,G,, C,4 |] %13
[M:4/4] z2 F.E/.D/ E.C/.D/ EC | .F,.G,.A,.F, .G,.F,.E,.C, | F,F,,G,,G, A,A,,B,,B, | %16
 (CB,C)D CG,/A,/ B,C | DCB,G, CB,A,F, | G,C,G,,G, (C,D,E,)^F, | G,2 .C.B,/.A,/ .G,.A,.B,.G, | %20
 (A,C).D.^F, .G,.A,.B,.G, | ^F,DE,^C D,D/(=C/ .B,).B,, | .C,.C.^C.^C, .D,.D^D.^D, | %23
 .E,E.E,.E =D=D,^F,D, | G,CDD, (G,A,B,)^F, | G,=F,E,A, D,E,^F,D, | G,C,D,D, G,,4 :: %27
 G,2 C.B,/.A,/ G,.G/.=F/ .E/.D/.C/.B,/ | C2 F,.E,/.D,/ E,.C,/.D,/ .E,C, | %29
 F,E,D,F, E,(^G,,A,,)(^C, | D,)(^F,, =G,,)(B,, =C,)(E, =F,)(A, | B,)(D, E,)(^G, A,)(B,, C,)D, | %32
 E,A,,E,E, (A,B,C)^G, | (A,=G,^F,B, E,F,G,A,) | B,E,B,B,, (E,^F,G,).E, | A,2 z ^C D,(D/E/ ^F).^F, | %36
 G,2 z B, C(C,/D,/ E,).C, | .F,.F,, G,,.G, .A,.A,, .B,,.B, | (CB,C).D .C(G,/A,/ B,)G, | %39
 C.E,/.F,/ G,G,, (C,D,E,)C,- | G,(E,F,=B,,) C,.E,/.D,/ C,.B,, | .A,,[F,,F,] [G,,G,]G,, .C,C z2 :| %42
 z/8 |[M:3/2] (A,,2 B,,2 C,2 B,,2 C,2 D,2) | (E,8 ^G,4) | (A,2 =G,2 F,6 D,2) | E,4 E,,4 z4 | %47
 z2 (G,2 ^F,2 G,2 F,2 E,2) | (^D,4 B,,4) E,4 | [A,,A,]4 [B,,B,]4 B,,4 | %50
 E,2 (E,2 C,2 =D,2 E,2 C,2) | (D,2 C,2 B,,2 A,,2 B,,2 G,,2) | (C,2 C,,2 A,,2 B,,2 C,2 A,,2) | %53
 (B,,2 A,,2 ^G,,2 ^F,,2 G,,2 E,,2) | (A,,2 E,2) F,4 D,4 | E,4 (^G,4 A,4) | D,4 E,4 E,4 | A,8 E,4 | %58
 (A,2 G,2) F,8 | E,12 |] z/8 |[M:3/8] .C,.F,.C, | .F,.C, z | .C.C,.F, | .G,.G,, z | .C.C,.E, | %66
 .F,.D.F, | .G,.B,.G, | (C/G/4F/4) (E/4F/4G/) (C/4D/4E/) | FD,F, | G,B,G, | (A,/F,/) G,G,, | %72
 .C,.E,.C, | .B,,.G,,.B,, | .C,.C.C, | .^F,.D,.F, | .G,.B,.G, | .C.E.C | DE^F | G^FE | DCB, | %81
 CB,A, | G,^F,E, | D,C,B,, | .C,.D,.D,, | G,,B,,G,, | (C,E,C,) | (^F,D,F,) | G,/C,/ .D,.D,, | %89
 .G,,.G, z :: .G,(.C.G,) | .C.G, z | G,A,^F, | (G,/^F,/G,/A,/B,/G,/) | .CF,.C, | F,.C, z | %96
 .C.D.B, | (C/D/E/D/C/B,/) | (CA,C) | (DFD) | (B,G,B,) | (CEC) | A,>(DC/B,/) | A,A,,A, | %104
 (^G,=G,)G,, | (^F,,=F,,)F, | E,^G,A, | DEE, | [A,,A,]2 z | D,E,^F, | G,.=F,.D, | C,D,E, | F,A,F, | %113
 G,2 z | (B,CD) | (G,A,B,) | CC,C | G,F,E, | F,G,G,, | .C,.CB, | CB,G, | G,F,E, | F,E,D, | E,D,C, | %124
 G,,G,A, | F,G,G,, | C,2 B,, | C,G,G,, | C,C z :| %129
V:3
 z G2- G z (E/F/Gc) | A2 [FB][Ec] BG c2 | z (AFA) B G2 G | G/F/A G2 GE/>G/ A[EG] | (GBcA) (Bcde) | %5
 [^FA][DB] [Ac]2 [GB](B/>A/ G/4A/4B/) (B/4c/4d/) | eG A2- AA B2 | B(B- B2 A2 d3/2) z/ | %8
 A3 A G3 _B | (AG=Bc) B z z c | c2 (B/4c/4g/) (d/4e/4f/) f(dg)e | cc G2 (EF G2-) | GA G2 [CEG]4 |] %13
[M:4/4] e2 c2- c.e/.f/ ge | (ABc).d .B.d.g.e | .e.d (f2 e)(agf) | (ede)f .e.d z G | %17
 (FG/A/ d).B (EF/G/ c).A | Bc cB c3 (d/c/) | B2 (G>A) .B.c.d.B | (ce).d.c .B.c.d.g | a B2 A x2 d2 | %22
 c2 e2 d2 ^f2 | e2 g2 ^f(^FA)c | Bedc (Bcd)A | [D_B] [G,G]2 G/(E/ ^FGA)c | %26
 [DG=B][EG][B,G].[CD^F] [B,DG]4 :: [DGB]2 [EG] z [DB] z z [FG] | [EG]2 [CAc] z [CGc].E/.F/ .G[Ge] | %29
 (c2 d2- d)(B^c)(A | A)(A B)=G- G(G A)=F- | F([FA] [E^G])(B c)(G B)B | (^GA- AG) (A3 B) | %33
 (c_B A2 =GA=Bc) | B2 A2 (GAB).G | [EG^c]2 z [GA] [^FA](F/G/ A)[DA] | %36
 [DGB]2 z [=FG] [EG](E/F/ G).[Ge] | (ed f2 ea gf) | (ede).f .e g2 f | (ec) (Bd) c3 (G- | %40
 G2 F2 E).G/.F/ EG | A[Ac] z B [EGc]2 z2 :| z/8 |[M:3/2] A12 | (^G2 A2 B8) | E6 (E2 D2 [B,FA]2) | %46
 (^G6 A2 B4) | B8 B4- | B8 [G-B]4 | G2 ^F2 (F4 A4) | G4 c8 | B2- A2 G2 c2 d2 B2 | %52
 (G4 c2 d2 e2 c2) | (^G2 A2 B2 A2 B2 d2) | (c2 B2) [CA]4 [B,FA]4 | [B,^G]4 ([B,E]4 [CE]4) | %56
 [FA]4 (A4 ^G4) | A8 [^GB]4 | (c2 B2) A8 | [B,E^G]12 |] z/8 |[M:3/8] .[CEA].[CFA].[CEG] | %62
 .[CFA][CEG] z | .[EGc] z .[FA] | [DB]2 z | [EG] z (([Gc] | [Ac])) z ([Ad-] | [Bd])[Gg][Gg] | %68
 [ce][cg][ce] | [Aa] z A | BdB | [Ec]D/E/[FG] | [EG] z [EG] | [DG] z [Gd] | [Ge] z z | %75
 [Ad] z [Ada] | [Bdg] z [=Fd] | c2 .e | d3- | d3- | d3- | d3- | d3- | [^Fd]2 [DGd] | %84
 [EAc][Bd][Ac] | (Bd)B | (ec)e | d2 z | BGF | .[B,G]3 :: .[Bd].[Gce].[FAc] | .[Gce].[Bd]/(D/G/A/ | %92
 .B).c.A | G/A/B/c/d/B/ | .[EGc](.[FAc].[EGc]) | .[Gce].[EGc]/(G/c/d/ | .e).f.d | (e/f/g/f/e/d/) | %98
 ece | fdf | dBd | ece | z e>d | ee(e/f/) | (f e2) | (e2 d) | d2 [Ac] | A2 ^G | A3 | ^FGA | BAG | %111
 c3 | .c2 .[Ad] | [DGB]2 z | (def) | (Bcd) | e3 | [Bd]2 [Gcg] | [Af] [Bf]2 | [ce]2 d | edc | BAG | %122
 AGF | .G3 | GBc | .c B2 | [Ec]2 [DGd] | [DFe][Dc][FB] | [CEGc]2 z :| %129
V:4
 x GFE/.D/ x C- C2 | C2 G2 (G/F/E/D/ CE) | x C2 D DB,/>[DF]/ [CE][B,D] | C2 x6 | D3 D- D G2 G | %5
 x6 GG | G(G- G2 F)A- AF | ^G x EG/E/- EFAG | AG^F[Dc] ([DB]=FE)[CE] | CCFE D(B,CE) | %10
 F A2 A B2 [Gc]2 | A(G/A/) E[DF] C3 D | (EC) E[DF] x4 |][M:4/4] G2 x3 c2 G | F3 A G3 x | %15
 A2 B2 c2 [Gd]2 | G3 G GB x2 | F3 F E2 CF | FE [DF]2 (EFG)[DA] | [DG]2 G2- G2 G2 | G2 ^FA G3 B | %21
 [Ad]^F/ G2 F2 x/ DG/=F/ | E2 EA/G/ ^F2 FB/A/ | G2 Gc/A/ A .D2 ^F | G2 BA G3 D | x5 D2 [D^F] | %26
 x8 :: x8 | x8 | AGFA ^G E2 (E | ^F) D2 (D E) C2 (C | D) B,2 E- E E2 =F | DC D2 CD E2 | %33
 E2 A^F G E2 F | ^FGE^D E4 | x8 | x8 | A2 B2 c2 [Gd]2 | G3 G G(B/c/ d)B | G.G/.A/ F2 (EFG)E | %40
 D^C=CD E C2 D | CD- D/E/F x4 :| x/4 |[M:3/2] (C2 D2 E2 D2 E2 F2) | (D8 E4) | x12 | E8- E2 ^F2 | %47
 (=G2 E2 ^D2 E2 D2 E2) | (^F4 ^D4) E4 | C4 x4 ^D4 | E4 E2- =F2 G2 E2 | =F8 F4 | E8 E4 | %53
 D8- D2 ^G2 | A2 D2 x8 | x12 | (C2 B,2) [B,DE]8 | C4 E8- | (E8 D4) | x12 |] x/4 |[M:3/8] x3 | x3 | %63
 x3 | x3 | x3 | x3 | x3 | x3 | x3 | G2 F | x3 | x3 | x3 | x3 | x3 | x3 | EGG | ^FGA | BAG | ^FED | %81
 E/^F/GA | BAG | x3 | x3 | G3 | G3 | A^FA | G/E/ [CD]2 | x3 :: x3 | x3 | x3 | x G2 | x3 | x3 | x3 | %97
 x3 | A3 | A3 | G3 | G3 | x E2 | c[ce]c | BBB | AAA | x2 E | F D2 | ^CDE | x D2 | D2 =F | EFG | %112
 AFD | x3 | G3 | G3 | G3 | x3 | x3 | x3 | G3 | G x2 | x3 | EDC | B,FE | D>EF | x3 | x G x | x3 :| %129
V:5
 [C,C]2 [G,,G,]2 [A,,A,]2 [E,,E,]2 | [F,,F,][E,,E,][D,,D,][C,,C,] G,,(G,/F,/ E,>C,) | %2
 [F,,F,]2 [D,,D,][F,,F,] [G,,G,](G,/>B,,/ C,)[G,,G,] | %3
 [A,,A,][F,,F,][G,,G,][G,,,G,,] [A,,,C,]2 z C, | %4
 B,,([G,,G,][A,,A,][^F,,^F,]) ([G,,G,][A,,A,][B,,B,][C,C]) | %5
 [D,D][G,,G,]D,[D,,D,] [G,,G,](D/>C/ B,/4C/4D/)G,/4B,/4B,/ | C2 z (C D2) z D, | E,2 z D CDEE, | %8
 A,2 z [^F,,^F,] [G,,G,]2 z [C,,C,] | ([=F,,=F,][E,,E,][D,,D,][C,,C,]) [G,,G,]2 z2 | %10
 z (F,/>E,/) D,/4E,/4F,/ (B,,/4C,/4D,/) [G,,G,][F,,F,][E,,E,][C,,C,] | %11
 [F,,F,]([E,,E,]/[F,,F,]/) [G,,G,][G,,,G,,] [_C,,C,][D,,D,][E,,E,][G,,,B,,,B,,] | %12
 [C,,C,][F,,F,][G,,G,][G,,,G,,] [C,,C,]4 |][M:4/4] [C,C]2 F.E/.D/ E.C/.D/ EC | %14
 .F,.G,.A,.F, .G,.F,.E,.C, | F,F,,G,,G, A,A,,B,,B, | (CB,C)D CG,/A,/ B,C | DCB,G, CB,A,F, | %18
 G,C,G,,G, (C,D,E,)^F, | G,2 .C.B,/.A,/ .G,.A,.B,.G, | (A,C).D.^F, .G,.A,.B,.G, | %21
 ^F,DE,^C D,D/(=C/ .B,).B,, | .C,.C.^C.^C, .D,.D^D.^D, | .E,E.E,.E =D=D,^F,D, | %24
 [G,,G,][C,C][D,D][D,,D,] ([G,,G,][A,,A,][B,,B,])[^F,,^F,] | %25
 [G,,G,][=F,,=F,][E,,E,][A,,A,] [D,,D,][E,,E,][^F,,^F,][D,,D,] | %26
 [G,,G,][C,,C,][D,,D,][D,,D,] [G,,,G,,]4 :: [G,,G,]2 C.B,/.A,/ G,.G/.=F/ E/.D/.C/.B,/ | %28
 C2 F,.E,/.D,/ E,.C,/.D,/ .E,C, | F,E,D,F, E,(^G,,A,,)(^C, | %30
 D,)(^F,, =G,,)(B,, =C,)([E,,E,] [=F,,=F,])([A,,A,] | %31
 [B,,B,])([D,,D,] [E,,E,])([G,,^G,] [A,,A,])(B,, C,)D, | E,A,,E,[E,,E,] ([A,,A,]B,C)^G, | %33
 (A,=G,^F,B, E,F,G,A,) | B,E,B,B,, (E,^F,G,).E, | A,2 z ^C D,(D/E/ ^F).^F, | %36
 G,2 z B, C(C,/D,/ E,).C, | .F,.F,,G,,.G, .A,.A,,.B,,.B, | (CB,C).D .C(G,/A,/ B,)G, | %39
 C.E,/.F,/ G,G,, (C,D,E,)C,- | G,(E,F,=B,,) C,.E,/.D,/ C,.B,, | %41
 .A,,[F,,F,] [G,,G,][G,,,G,,] .[C,,C,][C,C] z2 :| z/8 |[M:3/2] (A,,2 B,,2 C,2 B,,2 C,2 D,2) | %44
 (E,8 ^G,4) | (A,2 =G,2 F,6 D,2) | E,4 E,,4 z4 | z2 (G,2 ^F,2 G,2 F,2 E,2) | (^D,4 B,,4) E,4 | %49
 [A,,A,]4 [B,,B,]4 [B,,,B,,]4 | [E,,E,]2 (E,2 C,2 =D,2 E,2 C,2) | (D,2 C,2 B,,2 A,,2 B,,2 G,,2) | %52
 (C,2 C,,2 A,,2 B,,2 C,2 A,,2) | (B,,2 A,,2 ^G,,2 ^F,,2 G,,2 E,,2) | %54
 (A,,2 [E,,E,]2) [F,,F,]4 [D,,D,]4 | [E,,E,]4 (([^G,,^G,]4 [A,,A,]4)) | %56
 [D,,D,]4 [E,,E,]4 [E,,E,]4 | [A,,A,]8 [E,,E,]4 | ([A,,A,]2 [G,,G,]2) F,,8 | E,12 |] z/8 | %61
[M:3/8] .[C,,C,](.[F,,F,].[C,,C,]) | .[F,,F,].[C,,C,] z | .C.C,.F, | .G,.G,, z | .C.C,.E, | %66
 .F,.D.F, | .G,.B,.G, | (C/G/4F/4) (E/4F/4G/) (C/4D/4E/) | FD,F, | G,B,G, | (A,/F,/) G,G,, | %72
 .C,.E,.C, | .B,,.G,,.B,, | .C,.C.C, | .^F,.D,.F, | .G,.B,.G, | .C.E.C | DE^F | G^FE | DCB, | %81
 CB,A, | G,^F,E, | D,C,B,, | .C,.D,.D,, | G,,B,,G,, | (C,E,C,) | (^F,D,F,) | G,/C,/ .D,.D,, | %89
 .G,,.G, z :: .[G,,G,](.[C,C].[G,,G,]) | .[C,C].[G,,G,] z | G,A,^F, | (G,/^F,/G,/A,/B,/G,/) | %94
 .[C,C]F,.C, | F,.C, z | .C.D.B, | (C/D/E/D/C/B,/) | (CA,C) | (DFD) | (B,G,B,) | (CEC) | %102
 A,>(DC/B,/) | A,A,,A, | (^G,=G,)G,, | (^F,,=F,,)[F,,F,] | [E,,E,][^G,,^G,][A,,A,] | %107
 [D,D][E,E][E,,E,] | [A,,A,]2 z | [D,,D,][E,,E,][^F,,^F,] | [G,,G,].[=F,,=F,].[D,,D,] | %111
 [C,,C,][D,,D,][E,,E,] | [F,,F,][A,,A,][F,,F,] | [G,,G,]2 z | (B,CD) | (G,A,B,) | CC,C | G,F,E, | %118
 F,G,G,, | .C,.CB, | CB,G, | G,F,E, | F,E,D, | [C,E,][B,,D,][A,,C,] | G,,G,A, | F,G,G,, | %126
 [C,,C,]2 [B,,,B,,] | [C,,C,][G,,G,][G,,,G,,] | [C,,C,][C,C] z :| %129
V:6
 x8 | x8 | x8 | x8 | x8 | x8 | x8 | x8 | x8 | x8 | x8 | x8 | x8 |][M:4/4] x8 | x8 | x8 | x8 | x8 | %18
 x8 | x8 | x8 | x7/2 A2 x5/2 | x8 | x8 | x8 | x8 | x8 :: x8 | x8 | x8 | x8 | x8 | x8 | x8 | x8 | %35
 x8 | x8 | x8 | x8 | x8 | x8 | x8 :| x/4 |[M:3/2] x12 | x12 | x12 | B,4 x2 z2 x4 | x12 | x12 | %49
 x12 | x12 | x12 | x12 | x12 | x12 | x12 | x12 | x12 | x12 | x12 |] x/4 |[M:3/8] x3 | x3 | x3 | %64
 x3 | x3 | x3 | x3 | x3 | x3 | x3 | x3 | x3 | x3 | x3 | x3 | x3 | x3 | x3 | x3 | x3 | x3 | x3 | %83
 x3 | x3 | x3 | x3 | x3 | x3 | x3 :: x3 | x3 | x3 | x3 | x3 | x3 | x3 | x3 | x3 | x3 | x3 | x3 | %102
 x3 | x3 | x3 | x3 | GB x | x3 | x3 | x3 | x3 | x3 | x3 | x3 | x3 | x3 | x3 | x3 | x3 | x3 | x3 | %121
 x3 | x3 | x3 | x3 | x3 | x3 | x3 | x3 :| %129
V:7
 x8 | x8 | x8 | x8 | x8 | x8 | x8 | x8 | x8 | x8 | x8 | x8 | x8 |][M:4/4] x8 | x8 | x8 | x8 | x8 | %18
 x8 | x8 | x8 | x8 | x8 | x8 | x8 | x8 | x8 :: x8 | x8 | x8 | x8 | x8 | x8 | x8 | x8 | x8 | x8 | %37
 x8 | x8 | x8 | x8 | x8 :| x/4 |[M:3/2] x12 | x12 | x12 | x12 | x12 | x12 | x12 | x12 | x12 | x12 | %53
 x12 | x12 | x12 | x12 | x12 | x4 F,8 | E,,8 x4 |] x/4 |[M:3/8] x3 | x3 | x3 | x3 | x3 | x3 | x3 | %68
 x3 | x3 | x3 | x3 | x3 | x3 | x3 | x3 | x3 | x3 | x3 | x3 | x3 | x3 | x3 | x3 | x3 | x3 | x3 | %87
 x3 | x3 | x3 :: x3 | x3 | x3 | x3 | x3 | x3 | x3 | x3 | x3 | x3 | x3 | x3 | x3 | x3 | x3 | x3 | %106
 x3 | x3 | x3 | x3 | x3 | x3 | x3 | x3 | x3 | x3 | x3 | x3 | x3 | x3 | x3 | x3 | x3 | x3 | x3 | %125
 x3 | x3 | x3 | x3 :| %129
V:8
 x8 | x8 | x8 | x8 | x8 | x8 | x8 | x8 | x8 | x8 | x8 | x8 | x8 |][M:4/4] x8 | x8 | x8 | x8 | x8 | %18
 x8 | x8 | x8 | x8 | x8 | x8 | x8 | x8 | x8 :: x8 | x8 | x8 | x8 | x8 | x8 | x8 | x8 | x8 | x8 | %37
 x8 | x8 | x8 | x8 | x8 :| x/4 |[M:3/2] x12 | x12 | x12 | x12 | x12 | x12 | x12 | x12 | x12 | x12 | %53
 x12 | x12 | x12 | x12 | x12 | x12 | x12 |] x/4 |[M:3/8] x3 | x3 | x3 | x3 | x3 | x3 | x3 | x3 | %69
 x3 | x3 | x3 | x3 | x3 | x3 | x3 | x3 | x3 | x3 | x3 | x3 | x3 | x3 | x3 | x3 | x3 | x3 | x3 | %88
 x3 | x3 :: x3 | x3 | x3 | x3 | x3 | x3 | x3 | x3 | x3 | x3 | x3 | x3 | x3 | x3 | x3 | x3 | E2 x | %107
 x3 | x3 | x3 | x3 | x3 | x3 | x3 | x3 | x3 | x3 | x3 | x3 | x3 | x3 | x3 | x3 | x3 | x3 | x3 | %126
 x3 | x3 | x3 :| %129

